X:330
T:Mairi's Wedding
M:4/4
L:1/8
K:G major
%
"G"D>D DEGA B2 | "C"AGEG "D"BABd | "G"D>D DEGA B2 | "C"AGEC "D"D2 D2 :|
|: "G"d>d dedc B2 | "C"AGEG "D"BA B2 | "G"d>d dedc B2 | "C"AGEC "D"D2 D2 :|



%%newpage
%%stretchlast no

